src/assets/icons/filters/categories/building.svg

<svg width="48" height="46" viewBox="0 0 48 46" fill="none" xmlns="http://www.w3.org/2000/svg">
<path fill-rule="evenodd" clip-rule="evenodd" d="M45 42.0024H33V34.5024H45V42.0024ZM18 34.5024H30V42.0024H18V34.5024ZM3 34.5024H15V42.0024H3V34.5024ZM10.5 24.0024H22.5V31.5024H10.5V24.0024ZM14.1 20.7024L18 15.5019V21.0024H13.7655C13.887 20.9139 14.0085 20.8254 14.1 20.7024ZM6.6 13.2024L13.8 3.60242L19.8 8.10242L12.6 17.7024L6.6 13.2024ZM33 21.0024H21V13.5024H33V21.0024ZM37.5 31.5024H25.5V24.0024H37.5V31.5024ZM40.5 31.5024V22.5024C40.5 22.1046 40.342 21.7231 40.0607 21.4418C39.7794 21.1605 39.3978 21.0024 39 21.0024H36V12.0024C36 11.6046 35.842 11.2231 35.5607 10.9418C35.2794 10.6605 34.8978 10.5024 34.5 10.5024H21.75L23.1 8.70242C23.3387 8.38416 23.4412 7.98411 23.3849 7.59028C23.3287 7.19646 23.1183 6.84111 22.8 6.60242L14.4 0.302417C14.2427 0.183459 14.0634 0.0968181 13.8725 0.0474909C13.6816 -0.00183631 13.4827 -0.0128738 13.2875 0.0150154C13.0923 0.0429047 12.9045 0.109169 12.735 0.209986C12.5655 0.310802 12.4177 0.444176 12.3 0.602416L3.3 12.6024C3.0613 12.9207 2.95882 13.3207 3.01508 13.7146C3.07134 14.1084 3.28174 14.4637 3.6 14.7024L12 21.0024H9C8.60218 21.0024 8.22064 21.1605 7.93934 21.4418C7.65804 21.7231 7.5 22.1046 7.5 22.5024V31.5024H1.5C1.10218 31.5024 0.720645 31.6605 0.43934 31.9418C0.158036 32.2231 0 32.6046 0 33.0024V43.5024C0 43.9002 0.158036 44.2818 0.43934 44.5631C0.720645 44.8444 1.10218 45.0024 1.5 45.0024H46.5C46.8978 45.0024 47.2794 44.8444 47.5607 44.5631C47.842 44.2818 48 43.9002 48 43.5024V33.0024C48 32.6046 47.842 32.2231 47.5607 31.9418C47.2794 31.6605 46.8978 31.5024 46.5 31.5024H40.5Z" fill="#253238"/>
<path fill-rule="evenodd" clip-rule="evenodd" d="M37.4997 31.5024H25.4997V24.0024H37.4997V31.5024ZM14.9907 41.9724H2.99072V34.4724H14.9907V41.9724ZM44.9637 41.9724H32.9637V34.4724H44.9637V41.9724ZM6.59972 13.2024L13.7997 3.60242L19.7997 8.10242L12.5997 17.7024L6.59972 13.2024ZM10.4997 24.0024H22.4997V31.5024H10.4997V24.0024ZM17.9997 34.5024H29.9997V42.0024H17.9997V34.5024ZM32.9997 21.0024H20.9997V13.5024H32.9997V21.0024Z" fill="#CFD8DC"/>
<path opacity="0.5" fill-rule="evenodd" clip-rule="evenodd" d="M32.9997 21.0024H20.9997V13.5024H32.9997V21.0024ZM14.9907 41.9724H2.99072V34.4724H14.9907V41.9724ZM44.9997 41.9724H32.9997V34.4724H44.9997V41.9724Z" fill="white"/>
</svg>

<svg width="48" height="46" viewBox="0 0 48 46" fill="none" xmlns="http://www.w3.org/2000/svg"><path fill-rule="evenodd" clip-rule="evenodd" d="M45 42.002H33v-7.5h12v7.5zm-27-7.5h12v7.5H18v-7.5zm-15 0h12v7.5H3v-7.5zm7.5-10.5h12v7.5h-12v-7.5zm3.6-3.3l3.9-5.2v5.5h-4.235a1.48 1.48 0 00.335-.3zm-7.5-7.5l7.2-9.6 6 4.5-7.2 9.6-6-4.5zm26.4 7.8H21v-7.5h12v7.5zm4.5 10.5h-12v-7.5h12v7.5zm3 0v-9a1.5 1.5 0 00-1.5-1.5h-3v-9a1.5 1.5 0 00-1.5-1.5H21.75l1.35-1.8a1.5 1.5 0 00-.3-2.1l-8.4-6.3a1.494 1.494 0 00-2.1.3l-9 12a1.5 1.5 0 00.3 2.1l8.4 6.3H9a1.5 1.5 0 00-1.5 1.5v9h-6a1.5 1.5 0 00-1.5 1.5v10.5a1.5 1.5 0 001.5 1.5h45a1.5 1.5 0 001.5-1.5v-10.5a1.5 1.5 0 00-1.5-1.5h-6z" fill="#253238"/><path fill-rule="evenodd" clip-rule="evenodd" d="M37.5 31.502h-12v-7.5h12v7.5zm-22.51 10.47h-12v-7.5h12v7.5zm29.974 0h-12v-7.5h12v7.5zM6.6 13.202l7.2-9.6 6 4.5-7.2 9.6-6-4.5zm3.9 10.8h12v7.5h-12v-7.5zm7.5 10.5h12v7.5H18v-7.5zm15-13.5H21v-7.5h12v7.5z" fill="#CFD8DC"/><path opacity=".5" fill-rule="evenodd" clip-rule="evenodd" d="M33 21.002H21v-7.5h12v7.5zm-18.01 20.97h-12v-7.5h12v7.5zm30.01 0H33v-7.5h12v7.5z" fill="#fff"/></svg>
